dist/svg/user-team.svg

<svg width="16" height="16" viewBox="0 0 16 16" fill="rgb(34, 34, 34)" xmlns="http://www.w3.org/2000/svg"><title>user-team</title><path d="M14.104 13H12.873C12.492 11.945 11.915 11.044 11.18 10.298L11.181 10.299C10.544 9.66097 9.803 9.12497 8.986 8.72097L8.938 8.69897C9.596 7.99097 10 7.03797 10 5.99197C10 4.33697 8.99 2.91697 7.553 2.31597L7.527 2.30597C8.074 1.51097 8.979 0.995972 10.004 0.995972C11.659 0.995972 13 2.33797 13 3.99197C13 5.18097 12.307 6.20797 11.304 6.69297L11.286 6.70097V7.15897C12.54 7.49797 13.615 8.13897 14.468 9.00097L14.469 9.00197C15.452 10.002 17.538 13.002 14.105 13.002L14.104 13ZM7.286 9.15797V8.69997C8.308 8.20697 9 7.17897 9 5.98897C9 4.33197 7.657 2.98897 6 2.98897C4.343 2.98897 3 4.33197 3 5.98897C3 7.17897 3.692 8.20697 4.696 8.69197L4.714 8.69997V9.15797C3.46 9.49697 2.385 10.138 1.532 11L1.531 11.001C0.547997 12.001 -1.538 15.001 1.895 15.001H10.103C13.536 15.001 11.45 12.001 10.467 11.001C9.613 10.139 8.538 9.49697 7.334 9.16997L7.285 9.15897L7.286 9.15797Z" fill="rgb(34, 34, 34)" fill-opacity="1.00"/></svg>

<!-- Generated by Trend Micro Style Portal -->
<svg version="1.1" xmlns="http://www.w3.org/2000/svg" width="16" height="16" viewBox="0 0 16 16">
  <title>user-team</title>
  <path fill="rgb(34,34,34)" d="M14.104 13h-1.231c-0.381-1.055-0.958-1.956-1.693-2.702l0.001 0.001c-0.637-0.638-1.378-1.174-2.195-1.578l-0.048-0.022c0.658-0.708 1.062-1.661 1.062-2.707 0-1.655-1.010-3.075-2.447-3.676l-0.026-0.010c0.547-0.795 1.452-1.31 2.477-1.31 1.655 0 2.996 1.342 2.996 2.996 0 1.189-0.693 2.216-1.696 2.701l-0.018 0.008v0.458c1.254 0.339 2.329 0.98 3.182 1.842l0.001 0.001c0.983 1 3.069 4-0.364 4zM7.286 9.158v-0.458c1.022-0.493 1.714-1.521 1.714-2.711 0-1.657-1.343-3-3-3s-3 1.343-3 3c0 1.19 0.692 2.218 1.696 2.703l0.018 0.008v0.458c-1.254 0.339-2.329 0.98-3.182 1.842l-0.001 0.001c-0.983 1-3.069 4 0.364 4h8.208c3.433 0 1.347-3 0.364-4-0.854-0.862-1.929-1.504-3.133-1.831l-0.049-0.011z"></path>
</svg>
